!!!OTL: Koenig von Mailand Ich sachs eins mals den lichten morgensterne:
!!!ARE: Europa, Mitteleuropa, Deutschland
!!!YOR: 3, S. 234
!!    1480 Handschrift Glogau
!!!SCT: Q1067D
!!!YEM: Copyright 1995, estate of Helmut Schaffrath.
**kern
*ICvox
*Ivox
!! Irregular meter.
*MX
*k[b-]
*d:
{4d
=1
4fn
4a
4g
2a
4a
=2
8b-
8a
4a
4g
8b-
8a
4fn}
{4g
=3
4a
8fn
8a
8g
8fn
4d
4a
8g
8fn
=4
4d
4fn
4d
4cn}
=5
{4d
=6
2fn
4g
4a
4fn
4d
=7
4a
8g
8a
8fn
8d
4e
=8
2d}
==
!!!AGN: ???
!! Melodievergleich zu Q0067, anderes Lied.
!!!ONB: ESAC (Essen Associative Code) Database: BALLADE
!!!AMT: irregular
!!!AIN: vox
!!!EED: Helmut Schaffrath
!!!EEV: 1.0
*-
